image/shapoval-text.svg

<svg width="475" height="114" xmlns="http://www.w3.org/2000/svg" fill="none">

 <g>
  <title>Layer 1</title>
  <path stroke="null" id="svg_1" fill-opacity="0.25" fill="#393939" d="m432.314,89.3493c-0.597,0 -1.081,-0.4838 -1.081,-1.0805l0,-87.18825c0,-0.59677 0.484,-1.08055 1.081,-1.08055l11.99,0c0.596,0 1.08,0.48378 1.08,1.08055l0,87.18815c0,0.5968 -0.484,1.0806 -1.08,1.0806l-11.99,0z"/>
  <path id="svg_2" fill-opacity="0.25" fill="#393939" d="m332.677,89.4273c-0.437,0 -0.832,-0.2638 -0.999,-0.6681l-22.965,-58.1848c-0.294,-0.7113 0.229,-1.493 0.999,-1.493l12.736,0c0.443,0 0.842,0.2712 1.005,0.6838l8.501,24.1095c2.441,6.277 4.651,12.323 6.86,18.3675c0.024,0.0664 0.087,0.1105 0.158,0.1105c0.07,0 0.132,-0.0433 0.157,-0.1088c2.325,-6.1634 4.652,-12.4417 7.21,-18.72l8.499,-23.7641c0.164,-0.4098 0.561,-0.6784 1.003,-0.6784l11.925,0c0.769,0 1.291,0.7802 0.999,1.4913l-22.852,58.1847c-0.167,0.4053 -0.562,0.6699 -1,0.6699l-12.236,0z"/>
  <path id="svg_3" fill-opacity="0.25" fill="#393939" d="m277.137,89.4273c-17.893,0 -31.225,-13.2153 -31.225,-30.1729c0,-17.0746 13.332,-30.173 31.225,-30.173c17.893,0 31.226,13.0984 31.226,30.173c0,16.9576 -13.333,30.1729 -31.226,30.1729zm0,-12.5136c9.707,0 17.075,-7.7186 17.075,-17.6593c0,-9.9407 -7.368,-17.7763 -17.075,-17.7763c-9.823,0 -17.074,7.8356 -17.074,17.7763c0,9.9407 7.251,17.6593 17.074,17.6593z"/>
  <path id="svg_4" fill-opacity="0.25" fill="#393939" d="m184.105,114c-0.597,0 -1.08,-0.484 -1.08,-1.081l0,-82.6267c0,-0.5968 0.483,-1.0806 1.08,-1.0806l28.859,0c14.969,0 27.366,11.695 27.366,29.4713c0,18.0102 -12.865,30.8746 -29.939,30.8746c-4.981,0 -9.273,-1.1471 -12.877,-2.9869c-0.066,-0.0337 -0.144,-0.0342 -0.21,-0.001c-0.079,0.0393 -0.129,0.1197 -0.129,0.2077l0,26.1416c0,0.597 -0.483,1.081 -1.08,1.081l-11.99,0zm24.765,-36.3712c-4.196,0 -8.184,-1.2515 -11.176,-2.9665c-0.325,-0.1866 -0.519,-0.5367 -0.519,-0.9119l0,-31.2954c0,-0.5968 0.485,-1.0805 1.081,-1.0805c3.663,0 6.73,0 11.316,0c10.292,0 16.49,7.9525 16.49,18.0102c0,10.4085 -6.315,18.2441 -17.192,18.2441z" clip-rule="evenodd" fill-rule="evenodd"/>
  <path id="svg_5" fill-opacity="0.25" fill="#393939" d="m58.9151,89.3493c-0.5968,0 -1.0806,-0.4838 -1.0806,-1.0805l0,-87.18825c0,-0.59677 0.4838,-1.08055 1.0806,-1.08055l11.9898,0c0.5967,0 1.0805,0.48378 1.0805,1.08055l0,35.98295c0,0.0775 0.0438,0.1483 0.113,0.1829c0.0733,0.0367 0.1611,0.0262 0.2237,-0.0266c4.6709,-3.9335 11.1799,-6.9299 18.726,-6.9299c6.3153,0 11.3439,1.9881 15.0869,5.9644c3.625,3.9763 5.028,9.1221 5.028,16.8407l0,35.1737c0,0.5968 -0.483,1.0806 -1.08,1.0806l-11.9899,0c-0.5968,0 -1.0805,-0.4838 -1.0805,-1.0805l0,-33.4196c0,-4.0932 -0.5848,-7.1339 -2.5729,-9.122c-1.9882,-1.9881 -4.795,-2.9237 -7.9526,-2.9237c-5.2237,0 -10.5577,2.5361 -14.1818,6.0024c-0.2071,0.1981 -0.3199,0.4738 -0.3199,0.7604l0,38.7025c0,0.5967 -0.4838,1.0805 -1.0805,1.0805l-11.9898,0z"/>
  <path id="svg_6" fill-opacity="0.25" fill="#393939" d="m23.7781,89.5576c-7.159,0 -15.97415,-1.4354 -22.36873,-4.8425c-0.34423,-0.1834 -0.55338,-0.5446 -0.55338,-0.9346l0,-10.484c0,-0.8557 0.95219,-1.379 1.69682,-0.9575c6.96745,3.9447 15.41039,5.6406 21.45919,5.6406c6.4322,0 10.5254,-1.8712 10.5254,-5.9644c0,-2.9237 -1.7542,-4.4441 -6.6661,-5.6136c-4.9119,-1.1695 -13.917,-2.4559 -19.4136,-5.0288c-5.61357,-2.5729 -8.3034,-7.017 -8.3034,-13.6831c0,-12.1627 9.9407,-18.478 23.8577,-18.478c6.8917,0 14.984,1.528 20.692,4.2678c0.3661,0.1757 0.5927,0.5489 0.5927,0.955l0,9.934c0,0.8157 -0.8713,1.3407 -1.6067,0.9877c-6.6322,-3.1839 -14.0379,-4.6834 -19.4441,-4.6834c-5.9645,0 -9.9407,1.7542 -9.9407,5.7305c0,3.0407 2.222,4.4441 7.2508,5.6136c5.0289,1.0525 13.4492,2.222 18.8289,4.6779c5.4966,2.5729 8.3034,6.9 8.3034,14.034c0,12.8644 -11.2272,18.8288 -24.9102,18.8288z"/>
  <path id="svg_7" fill-opacity="0.25" fill="#393939" d="m167.768,89.4406l-27.925,0c-11.461,0 -20.115,-6.1983 -20.115,-17.3085c0,-12.2796 9.473,-17.8932 23.857,-17.8932c3.509,0 7.602,0.3508 11.345,0.9356l0,-3.5085c0,-7.1339 -4.795,-10.2915 -13.917,-10.2915c-5.877,0 -11.052,1.4924 -14.84,3.3363c-0.747,0.3638 -1.65,-0.1639 -1.65,-0.9951l0,-9.4393c0,-0.3843 0.202,-0.7408 0.539,-0.9249c4.239,-2.3138 10.8,-4.1398 18.757,-4.1398c15.672,0 25.028,6.9 25.028,20.7001l0,7.6071l6.008,1.0123c0.52,0.0876 0.901,0.538 0.901,1.0655l0,7.1457c0,0.6706 -0.604,1.1793 -1.265,1.0646l-5.644,-0.9792l0,5.6552l0,15.8773c0,0.5967 -0.482,1.0803 -1.079,1.0803zm-13.918,-10.8763l-10.615,0c-5.38,0 -9.59,-2.222 -9.59,-7.3678c0,-5.7305 5.496,-7.6017 12.046,-7.6017c2.806,0 6.549,0.3509 9.239,0.8187l0,13.0703c0,0.5968 -0.483,1.0805 -1.08,1.0805z" clip-rule="evenodd" fill-rule="evenodd"/>
  <path id="svg_8" fill-opacity="0.25" fill="#393939" d="m418.089,89.4407l-27.925,0c-11.461,0 -20.116,-6.1984 -20.116,-17.3086c0,-12.2796 9.473,-17.8932 23.858,-17.8932c3.508,0 7.602,0.3508 11.344,0.9356l0,-3.5085c0,-7.1339 -4.795,-10.2915 -13.917,-10.2915c-5.877,0 -11.051,1.4924 -14.839,3.3363c-0.747,0.3638 -1.651,-0.1639 -1.651,-0.9951l0,-9.4393c0,-0.3843 0.202,-0.7408 0.54,-0.9249c4.238,-2.3138 10.799,-4.1398 18.757,-4.1398c15.671,0 25.027,6.9 25.027,20.7001l0,7.6072l6.009,1.0122c0.52,0.0876 0.901,0.538 0.901,1.0655l0,7.1457c0,0.6706 -0.605,1.1793 -1.266,1.0646l-5.644,-0.9792l0,5.6552l0,15.8773c0,0.5967 -0.481,1.0804 -1.078,1.0804zm-13.919,-10.8763l-10.615,0c-5.38,0 -9.59,-2.2221 -9.59,-7.3679c0,-5.7305 5.497,-7.6017 12.046,-7.6017c2.807,0 6.549,0.3509 9.239,0.8187l0,13.0703c0,0.5968 -0.483,1.0806 -1.08,1.0806z" clip-rule="evenodd" fill-rule="evenodd"/>
 </g>
</svg>

<svg width="446" height="114" viewBox="0 0 446 114" fill="none" xmlns="http://www.w3.org/2000/svg">
<path d="M432.314 89.3493C431.717 89.3493 431.233 88.8655 431.233 88.2688V1.08055C431.233 0.483781 431.717 0 432.314 0H444.304C444.9 0 445.384 0.483777 445.384 1.08055V88.2687C445.384 88.8655 444.9 89.3493 444.304 89.3493H432.314Z" fill="#393939" fill-opacity="0.25"/>
<path d="M332.677 89.4273C332.24 89.4273 331.845 89.1635 331.678 88.7592L308.713 30.5744C308.419 29.8631 308.942 29.0814 309.712 29.0814H322.448C322.891 29.0814 323.29 29.3526 323.453 29.7652L331.954 53.8747C334.395 60.1517 336.605 66.1977 338.814 72.2422C338.838 72.3086 338.901 72.3527 338.972 72.3527C339.042 72.3527 339.104 72.3094 339.129 72.2439C341.454 66.0805 343.781 59.8022 346.339 53.5239L354.838 29.7598C355.002 29.35 355.399 29.0814 355.841 29.0814H367.766C368.535 29.0814 369.057 29.8616 368.765 30.5727L345.913 88.7574C345.746 89.1627 345.351 89.4273 344.913 89.4273H332.677Z" fill="#393939" fill-opacity="0.25"/>
<path d="M277.137 89.4273C259.244 89.4273 245.912 76.212 245.912 59.2544C245.912 42.1798 259.244 29.0814 277.137 29.0814C295.03 29.0814 308.363 42.1798 308.363 59.2544C308.363 76.212 295.03 89.4273 277.137 89.4273ZM277.137 76.9137C286.844 76.9137 294.212 69.1951 294.212 59.2544C294.212 49.3137 286.844 41.4781 277.137 41.4781C267.314 41.4781 260.063 49.3137 260.063 59.2544C260.063 69.1951 267.314 76.9137 277.137 76.9137Z" fill="#393939" fill-opacity="0.25"/>
<path fill-rule="evenodd" clip-rule="evenodd" d="M184.105 114C183.508 114 183.025 113.516 183.025 112.919V30.2923C183.025 29.6955 183.508 29.2117 184.105 29.2117H212.964C227.933 29.2117 240.33 40.9067 240.33 58.683C240.33 76.6932 227.465 89.5576 210.391 89.5576C205.41 89.5576 201.118 88.4105 197.514 86.5707C197.448 86.537 197.37 86.5365 197.304 86.5697C197.225 86.609 197.175 86.6894 197.175 86.7774V112.919C197.175 113.516 196.692 114 196.095 114H184.105ZM208.87 77.6288C204.674 77.6288 200.686 76.3773 197.694 74.6623C197.369 74.4757 197.175 74.1256 197.175 73.7504V42.455C197.175 41.8582 197.66 41.3745 198.256 41.3745C201.919 41.3745 204.986 41.3745 209.572 41.3745C219.864 41.3745 226.062 49.327 226.062 59.3847C226.062 69.7932 219.747 77.6288 208.87 77.6288Z" fill="#393939" fill-opacity="0.25"/>
<path d="M58.9151 89.3493C58.3183 89.3493 57.8345 88.8655 57.8345 88.2688V1.08055C57.8345 0.483781 58.3183 0 58.9151 0H70.9049C71.5016 0 71.9854 0.483777 71.9854 1.08055V37.0635C71.9854 37.141 72.0292 37.2118 72.0984 37.2464C72.1717 37.2831 72.2595 37.2726 72.3221 37.2198C76.993 33.2863 83.502 30.2899 91.0481 30.2899C97.3634 30.2899 102.392 32.278 106.135 36.2543C109.76 40.2306 111.163 45.3764 111.163 53.095V88.2687C111.163 88.8655 110.68 89.3493 110.083 89.3493H98.0931C97.4963 89.3493 97.0126 88.8655 97.0126 88.2688V54.8492C97.0126 50.756 96.4278 47.7153 94.4397 45.7272C92.4515 43.7391 89.6447 42.8035 86.4871 42.8035C81.2634 42.8035 75.9294 45.3396 72.3053 48.8059C72.0982 49.004 71.9854 49.2797 71.9854 49.5663V88.2688C71.9854 88.8655 71.5016 89.3493 70.9049 89.3493H58.9151Z" fill="#393939" fill-opacity="0.25"/>
<path d="M23.7781 89.5576C16.6191 89.5576 7.80395 88.1222 1.40937 84.7151C1.06514 84.5317 0.855993 84.1705 0.855993 83.7805V73.2965C0.855993 72.4408 1.80818 71.9175 2.55281 72.339C9.52026 76.2837 17.9632 77.9796 24.012 77.9796C30.4442 77.9796 34.5374 76.1084 34.5374 72.0152C34.5374 69.0915 32.7832 67.5711 27.8713 66.4016C22.9594 65.2321 13.9543 63.9457 8.4577 61.3728C2.84413 58.7999 0.154297 54.3558 0.154297 47.6897C0.154297 35.527 10.095 29.2117 24.012 29.2117C30.9037 29.2117 38.996 30.7397 44.704 33.4795C45.0701 33.6552 45.2967 34.0284 45.2967 34.4345V44.3685C45.2967 45.1842 44.4254 45.7092 43.69 45.3562C37.0578 42.1723 29.6521 40.6728 24.2459 40.6728C18.2814 40.6728 14.3052 42.427 14.3052 46.4033C14.3052 49.444 16.5272 50.8474 21.556 52.0169C26.5849 53.0694 35.0052 54.2389 40.3849 56.6948C45.8815 59.2677 48.6883 63.5948 48.6883 70.7288C48.6883 83.5932 37.4611 89.5576 23.7781 89.5576Z" fill="#393939" fill-opacity="0.25"/>
<path fill-rule="evenodd" clip-rule="evenodd" d="M167.768 89.4406H139.843C128.382 89.4406 119.728 83.2423 119.728 72.1321C119.728 59.8525 129.201 54.2389 143.585 54.2389C147.094 54.2389 151.187 54.5897 154.93 55.1745V51.666C154.93 44.5321 150.135 41.3745 141.013 41.3745C135.136 41.3745 129.961 42.8669 126.173 44.7108C125.426 45.0746 124.523 44.5469 124.523 43.7157V34.2764C124.523 33.8921 124.725 33.5356 125.062 33.3515C129.301 31.0377 135.862 29.2117 143.819 29.2117C159.491 29.2117 168.847 36.1117 168.847 49.9118V57.5189L174.855 58.5312C175.375 58.6188 175.756 59.0692 175.756 59.5967V66.7424C175.756 67.413 175.152 67.9217 174.491 67.807L168.847 66.8278V72.483V88.3603C168.847 88.957 168.365 89.4406 167.768 89.4406ZM153.85 78.5643H143.235C137.855 78.5643 133.645 76.3423 133.645 71.1965C133.645 65.466 139.141 63.5948 145.691 63.5948C148.497 63.5948 152.24 63.9457 154.93 64.4135V77.4838C154.93 78.0806 154.447 78.5643 153.85 78.5643Z" fill="#393939" fill-opacity="0.25"/>
<path fill-rule="evenodd" clip-rule="evenodd" d="M418.089 89.4407H390.164C378.703 89.4407 370.048 83.2423 370.048 72.1321C370.048 59.8525 379.521 54.2389 393.906 54.2389C397.414 54.2389 401.508 54.5897 405.25 55.1745V51.666C405.25 44.5321 400.455 41.3745 391.333 41.3745C385.456 41.3745 380.282 42.8669 376.494 44.7108C375.747 45.0746 374.843 44.5469 374.843 43.7157V34.2764C374.843 33.8921 375.045 33.5356 375.383 33.3515C379.621 31.0377 386.182 29.2117 394.14 29.2117C409.811 29.2117 419.167 36.1117 419.167 49.9118V57.519L425.176 58.5312C425.696 58.6188 426.077 59.0692 426.077 59.5967V66.7424C426.077 67.413 425.472 67.9217 424.811 67.807L419.167 66.8278V72.483V88.3603C419.167 88.957 418.686 89.4407 418.089 89.4407ZM404.17 78.5644H393.555C388.175 78.5644 383.965 76.3423 383.965 71.1965C383.965 65.466 389.462 63.5948 396.011 63.5948C398.818 63.5948 402.56 63.9457 405.25 64.4135V77.4838C405.25 78.0806 404.767 78.5644 404.17 78.5644Z" fill="#393939" fill-opacity="0.25"/>
</svg>
